public/pieces/icpieces/bK.svg

<svg height="368" width="368" xmlns="http://www.w3.org/2000/svg"><path d="m163 120c-5.252 2.616-9.6 6.214-13 11-24.694-17.885-69.2414-18.895-90.6998 5.039-12.4294 13.864-15.0527 32.034-14.2608 49.961.8572 19.405 12.0858 38.357 22.6304 54 3.4811 5.164 9.3501 10.325 11.7839 16 1.8823 4.389-3.8152 8.28-5.4838 12-3.7448 8.35-1.1952 17.631 6.0301 23-11.5404 12.2-7 34.243-7 50h222v-28c0-8.389.322-15.547-7-21 6.13-6.466 9.831-14.112 6.437-23-1.54-4.032-7.825-8.491-5.891-13 1.409-3.283 4.646-6.179 6.8-9 3.665-4.801 7.037-9.873 10.229-15 14.238-22.871 23.012-50.428 14.069-77-9.87-29.327-39.482-38.695-67.644-36.075-10.95 1.019-25.054 3.905-33 12.075-4.296-4.26-8.551-8.286-14-11 4.733-6.8 10.43-12.406 11.699-21 .838-5.6764.799-12.5037-.92-18-6.73-21.5282-35.338-29.0501-52.775-15.4707-10.635 8.2824-14.281 22.5866-11.323 35.4707 1.755 7.648 6.998 12.793 11.319 19z" fill="#fff"/><path d="m179 69.5185c-29.188 6.3306-19.039 51.2615 10 44.9625 29.188-6.33 19.039-51.2609-10-44.9625m4 105.4815h2c4.062-9.706 10.137-18.786 16.666-27 2.189-2.754 7.995-7.008 6.988-10.996-.841-3.333-5.007-5.86-7.654-7.644-8.526-5.747-23.025-6.752-32-1.291-3.188 1.94-9.792 5.588-9.793 9.932-.002 3.894 5.713 8.163 7.985 10.999 6.254 7.806 11.941 16.76 15.808 26m-4 78v-44c0-6.921 1.264-15.3-.637-22-3.355-11.818-12.125-24.606-19.828-34-5.895-7.19-13.192-13.556-21.535-17.73-24.673-12.345-62.9639-9.126-76.392 17.73-11.9918 23.984-3.004 51.763 10.4452 73 4.1686 6.582 8.6185 12.974 13.561 19 2.12 2.585 4.4815 6.061 7.6713 7.397 6.7629 2.832 18.4235.603 25.7145.603zm10 0h61c7.378 0 18.961 2.201 25.83-.603 3.198-1.306 5.459-4.815 7.559-7.397 4.919-6.05 9.387-12.414 13.558-19 13.449-21.237 22.437-49.016 10.445-73-13.428-26.856-51.719-30.075-76.392-17.73-8.343 4.174-15.64 10.54-21.535 17.73-7.703 9.394-16.473 22.182-19.828 34-1.901 6.7-.637 15.079-.637 22zm-97 10v4c-11.5537 1.557-11.5537 16.443 0 18v4h184v-4c11.554-1.557 11.554-16.443 0-18v-4z"/><path d="m181.015 267.746c-10.629 4.039-4.549 20.505 5.97 16.508 10.629-4.039 4.549-20.505-5.97-16.508z" fill="#fff"/><path d="m83 331h202c0-6.998.094-14.003-.004-21-.048-3.442-.255-7.104-3.224-9.397-3.317-2.56-8.852-1.603-12.772-1.603h-32-108-29c-3.8849 0-9.3769-.95-12.8912 1.028-3.6954 2.08-4.052 6.175-4.1049 9.972-.0977 6.997-.0039 14.002-.0039 21z"/></svg>

<?xml version="1.0" standalone="yes"?>
<svg xmlns="http://www.w3.org/2000/svg" width="368" height="368">
<path style="fill:#ffffff; stroke:none;" d="M163 120C157.748 122.616 153.4 126.214 150 131C125.306 113.115 80.7586 112.105 59.3002 136.039C46.8708 149.903 44.2475 168.073 45.0394 186C45.8966 205.405 57.1252 224.357 67.6698 240C71.1509 245.164 77.0199 250.325 79.4537 256C81.336 260.389 75.6385 264.28 73.9699 268C70.2251 276.35 72.7747 285.631 80 291C68.4596 303.2 73 325.243 73 341L295 341L295 313C295 304.611 295.322 297.453 288 292C294.13 285.534 297.831 277.888 294.437 269C292.897 264.968 286.612 260.509 288.546 256C289.955 252.717 293.192 249.821 295.346 247C299.011 242.199 302.383 237.127 305.575 232C319.813 209.129 328.587 181.572 319.644 155C309.774 125.673 280.162 116.305 252 118.925C241.05 119.944 226.946 122.83 219 131C214.704 126.74 210.449 122.714 205 120C209.733 113.2 215.43 107.594 216.699 99C217.537 93.3236 217.498 86.4963 215.779 81C209.049 59.4718 180.441 51.9499 163.004 65.5293C152.369 73.8117 148.723 88.1159 151.681 101C153.436 108.648 158.679 113.793 163 120z"/>
<path style="fill:#000000; stroke:none;" d="M179 69.5185C149.812 75.8491 159.961 120.78 189 114.481C218.188 108.151 208.039 63.2201 179 69.5185M183 175L185 175C189.062 165.294 195.137 156.214 201.666 148C203.855 145.246 209.661 140.992 208.654 137.004C207.813 133.671 203.647 131.144 201 129.36C192.474 123.613 177.975 122.608 169 128.069C165.812 130.009 159.208 133.657 159.207 138.001C159.205 141.895 164.92 146.164 167.192 149C173.446 156.806 179.133 165.76 183 175M179 253L179 209C179 202.079 180.264 193.7 178.363 187C175.008 175.182 166.238 162.394 158.535 153C152.64 145.81 145.343 139.444 137 135.27C112.327 122.925 74.0361 126.144 60.608 153C48.6162 176.984 57.604 204.763 71.0532 226C75.2218 232.582 79.6717 238.974 84.6142 245C86.7342 247.585 89.0957 251.061 92.2855 252.397C99.0484 255.229 110.709 253 118 253L179 253M189 253L250 253C257.378 253 268.961 255.201 275.83 252.397C279.028 251.091 281.289 247.582 283.389 245C288.308 238.95 292.776 232.586 296.947 226C310.396 204.763 319.384 176.984 307.392 153C293.964 126.144 255.673 122.925 231 135.27C222.657 139.444 215.36 145.81 209.465 153C201.762 162.394 192.992 175.182 189.637 187C187.736 193.7 189 202.079 189 209L189 253M92 263L92 267C80.4463 268.557 80.4463 283.443 92 285L92 289L276 289L276 285C287.554 283.443 287.554 268.557 276 267L276 263L92 263z"/>
<path style="fill:#ffffff; stroke:none;" d="M181.015 267.746C170.386 271.785 176.466 288.251 186.985 284.254C197.614 280.215 191.534 263.749 181.015 267.746z"/>
<path style="fill:#000000; stroke:none;" d="M83 331L285 331C285 324.002 285.094 316.997 284.996 310C284.948 306.558 284.741 302.896 281.772 300.603C278.455 298.043 272.92 299 269 299L237 299L129 299L100 299C96.1151 299 90.6231 298.05 87.1088 300.028C83.4134 302.108 83.0568 306.203 83.0039 310C82.9062 316.997 83 324.002 83 331z"/>
</svg>
